X: 460
T: The Cup of Gold
N:"Moderate" "collected by J.O'Neill"
N:Irish title: an cupan oir
B:O'Neill's 460
Z:Transcribed by henrik.norbeck@mailbox.swipnet.se
M:6/8
L:1/8
K:G
G2 A | B2 B B2 G | A2 G E2 B/d/ | e2 d d2 B | G3- G2 G/A/ |
B2 B B2 G | A2 G EGE | D2 E G2 G | G3 ||
d>ef | g2 e f2 d | e2 d B2 B/c/ | d2 e d2 B | d3 d>ef |
g2 e f2 d | e2 d B2 A/G/ | E2 G G2 A | B3 A2 G |
G3 E2 D | G3 ||


